_inc/systems/logos/gmaster.svg

<?xml version="1.0" encoding="utf-8"?>
<svg version="1.1" id="Layer_1" x="0px" y="0px" viewBox="0 0 3840 715" style="enable-background:new 0 0 3840 715;" xmlns="http://www.w3.org/2000/svg">
  <style type="text/css">
	.st0{fill:#E7362E;}
	.st1{fill:#FFFFFF;}
</style>
  <path d="M 407.065 423.514 L 407.065 423.6 L 441.3 423.6 C 444.8 439.2 446.6 455.4 446.6 472.1 C 446.6 595.4 346.6 695.4 223.3 695.4 C 100 695.4 0 595.5 0 472.1 C 0 348.7 100 248.8 223.3 248.8 C 290.5 248.8 350.7 278.5 391.6 325.4 L 315.6 401.4 C 294.3 373.7 261 355.7 223.3 355.7 C 159 355.7 106.9 407.7 106.9 472 C 106.9 536.3 159 588.4 223.3 588.4 C 266.308 588.4 303.858 565.091 324.01 530.414 L 180.665 530.414 L 180.665 423.514 L 380.086 423.514 L 380.1 423.5 L 380.1 423.514 Z M 778.3 708.4 L 671.4 708.4 L 671.4 583.864 L 601.6 583.864 L 601.6 708.4 L 494.7 708.4 L 494.7 398.3 L 494.8 398.3 C 494.7 209.3 778.3 209.3 778.3 398.3 Z M 671.4 398.3 C 680.3 398.3 689.2 398.3 671.4 398.3 C 671.4 351.8 601.7 351.8 601.7 398.3 C 601.667 398.3 601.633 398.3 601.6 398.3 L 601.6 476.964 L 671.4 476.964 Z M 1115 708.4 L 1008.1 708.4 L 1008.1 398.3 C 1008.1 351.8 938.4 351.8 938.4 398.3 L 938.4 708.4 L 831.5 708.4 L 831.5 393.7 L 831.546 393.7 C 835.218 210.833 1057.882 210.833 1061.554 393.7 L 1061.646 393.7 C 1065.318 210.834 1287.982 210.833 1291.654 393.7 L 1291.7 393.7 L 1291.7 708.4 L 1184.8 708.4 L 1184.8 398.3 C 1184.8 351.8 1115.1 351.8 1115.1 398.3 C 1115.067 398.3 1115.033 398.3 1115 398.3 Z M 1569.071 429.062 L 1569.071 535.962 L 1451.8 535.962 L 1451.8 601.5 L 1569.1 601.5 L 1569.1 708.4 L 1431.1 708.4 C 1383.5 708.4 1344.9 669.8 1344.9 622.2 L 1344.9 256.5 L 1451.8 256.5 L 1451.8 256.582 L 1569.091 256.582 L 1569.091 363.482 L 1451.8 363.482 L 1451.8 429.062 Z" class="st1"/>
  <path d="M 3097.2 708.4 L 2990.3 708.4 L 2990.3 363.48 L 2921.448 363.48 L 2921.448 256.58 L 3166.048 256.58 L 3166.048 363.48 L 3097.2 363.48 Z M 2524 708.4 L 2417.1 708.4 L 2417.1 583.903 L 2347.4 583.903 L 2347.4 708.4 L 2240.5 708.4 L 2240.5 398.3 C 2249.4 398.3 2258.3 398.3 2240.5 398.3 C 2240.5 209.3 2524 209.3 2524 398.3 Z M 2417.1 398.3 C 2417.1 351.8 2347.4 351.8 2347.4 398.3 L 2347.4 477.003 L 2417.1 477.003 Z M 2240.5 398.3 C 2222.7 398.3 2231.6 398.3 2240.5 398.3 Z M 2010.6 708.4 L 1903.7 708.4 L 1903.7 398.3 C 1903.7 351.8 1834 351.8 1834 398.3 C 1833.967 398.3 1833.933 398.3 1833.9 398.3 L 1833.9 708.4 L 1727 708.4 L 1727 393.7 L 1727.144 393.7 C 1730.721 210.833 1953.48 210.833 1957.154 393.7 L 1957.246 393.7 C 1960.949 209.313 2187.3 210.846 2187.3 398.3 C 2187.267 398.3 2187.233 398.3 2187.2 398.3 L 2187.2 708.4 L 2080.3 708.4 L 2080.3 395.294 C 2077.363 351.823 2010.7 352.824 2010.7 398.3 C 2010.667 398.3 2010.633 398.3 2010.6 398.3 Z M 3430.839 428.993 L 3430.839 535.893 L 3313.6 535.893 L 3313.6 601.5 L 3430.9 601.5 L 3430.9 708.4 L 3292.9 708.4 C 3245.3 708.4 3206.7 669.8 3206.7 622.2 L 3206.7 256.5 L 3313.6 256.5 L 3313.6 256.513 L 3430.859 256.513 L 3430.859 363.413 L 3313.6 363.413 L 3313.6 428.993 Z M 3591 413 L 3591 416.803 C 3592.979 454.331 3624.072 484.1 3662 484.1 C 3701.3 484.1 3733.1 452.3 3733.1 413 C 3733.1 373.7 3701.3 341.9 3662 341.9 C 3622.7 341.9 3590.9 373.8 3590.9 413 Z M 3591 708.4 L 3484.1 708.4 L 3484.1 419.02 C 3484.034 417.021 3484 415.015 3484 413 C 3484 314.7 3563.7 235 3662 235 C 3760.3 235 3840 314.7 3839.9 412.9 C 3839.9 478.198 3804.732 535.288 3752.305 566.262 L 3825.5 639.4 L 3749.9 715 L 3622.1 587.2 L 3621.847 586.234 C 3621.798 586.223 3621.749 586.211 3621.7 586.2 L 3591 468.882 Z M 2880.8 363.5 L 2840.5 363.5 C 2817.2 363.5 2797.4 380.4 2793.6 403.3 L 2760.7 601.6 C 2750.5 663.3 2697.1 708.5 2634.6 708.5 L 2564.6 708.5 L 2564.6 601.6 L 2612 601.6 C 2635.3 601.6 2655.1 584.7 2658.9 561.8 L 2691.8 363.5 C 2702 301.8 2755.4 256.6 2817.9 256.6 L 2880.8 256.6 Z" class="st1"/>
  <path class="st1" d="M 1297.8 3.5 L 1351.9 3.5 L 1351.9 60.6 L 1401.3 60.6 L 1401.3 3.5 L 1455.4 3.5 L 1455.4 165.2 L 1401.3 165.2 L 1401.3 107.2 L 1351.9 107.2 L 1351.9 165.2 L 1297.8 165.2 L 1297.8 3.5 Z"/>
  <path class="st1" d="M 1537.6 2.3 L 1591.2 2.3 L 1659.4 165.2 L 1600.7 165.2 L 1592.1 143.5 L 1535.5 143.5 L 1527.2 165.2 L 1469.4 165.2 L 1537.6 2.3 Z M 1578.7 105.1 L 1563.9 65.8 L 1549.1 105.1 L 1578.7 105.1 Z"/>
  <path class="st1" d="M 1673.4 3.5 L 1752.4 3.5 C 1781 3.5 1799.3 10.7 1810.6 22 C 1820.3 31.7 1825.4 43.7 1825.4 60.3 L 1825.4 60.8 C 1825.4 84.4 1813.2 100.8 1793.5 110.2 L 1831.2 165.2 L 1769.5 165.2 L 1739 119 L 1738.5 119 L 1727.4 119 L 1727.4 165.2 L 1673.3 165.2 L 1673.3 3.5 L 1673.4 3.5 Z M 1750.8 80.4 C 1763.7 80.4 1771.6 74.6 1771.6 64.7 L 1771.6 64.2 C 1771.6 53.8 1763.5 48.7 1751 48.7 L 1727.4 48.7 L 1727.4 80.3 L 1750.8 80.3 L 1750.8 80.4 Z"/>
  <path class="st1" d="M 1887.3 49.2 L 1839.7 49.2 L 1839.7 3.5 L 1989 3.5 L 1989 49.2 L 1941.4 49.2 L 1941.4 165.2 L 1887.3 165.2 L 1887.3 49.2 L 1887.3 49.2 Z"/>
  <path class="st1" d="M 2007.2 92.6 L 2007.2 3.5 L 2062.2 3.5 L 2062.2 92 C 2062.2 112.1 2072.6 120.6 2087.1 120.6 C 2101.6 120.6 2112 112.7 2112 93.1 L 2112 3.5 L 2167 3.5 L 2167 91.5 C 2167 146.7 2134.9 168.4 2086.6 168.4 C 2038.4 168.4 2007.2 146.2 2007.2 92.6 Z"/>
  <path class="st1" d="M 2191.5 3.5 L 2242.1 3.5 L 2299.6 74.9 L 2299.6 3.5 L 2353.2 3.5 L 2353.2 165.2 L 2305.1 165.2 L 2245 90.6 L 2245 165.2 L 2191.4 165.2 L 2191.4 3.5 L 2191.5 3.5 Z"/>
  <path class="st1" d="M 2375.4 84.8 L 2375.4 84.3 C 2375.4 36 2413.5 0 2464.6 0 C 2492.3 0 2514.7 9.2 2532.3 24.5 L 2502 61 C 2491.4 52 2479.6 46.9 2466.2 46.9 C 2445.2 46.9 2429.9 63.1 2429.9 85 L 2429.9 85.5 C 2429.9 108.4 2445.8 124.1 2468.5 124.1 C 2477.7 124.1 2482.8 122.7 2487 120.4 L 2487 104.2 L 2459.3 104.2 L 2459.3 69.5 L 2537.6 69.5 L 2537.6 144.3 C 2520 158.6 2495.6 168.6 2466.2 168.6 C 2415.8 168.7 2375.4 134.9 2375.4 84.8 Z"/>
</svg>

<?xml version="1.0" encoding="utf-8"?>
<!-- Generator: Adobe Illustrator 25.0.0, SVG Export Plug-In . SVG Version: 6.00 Build 0)  -->
<svg version="1.1" id="Layer_1" xmlns="http://www.w3.org/2000/svg" xmlns:xlink="http://www.w3.org/1999/xlink" x="0px" y="0px"
	 viewBox="0 0 3840 715" style="enable-background:new 0 0 3840 715;" xml:space="preserve">
<style type="text/css">
	.st0{fill:#E7362E;}
	.st1{fill:#FFFFFF;}
</style>
<g>
	<g>
		
			<rect x="240.4" y="363.8" transform="matrix(-1.836970e-16 1 -1 -1.836970e-16 770.8649 183.1137)" class="st1" width="106.9" height="226.4"/>
		<g>
			<rect x="671.4" y="398.3" class="st1" width="106.9" height="310.1"/>
			<path class="st1" d="M778.3,398.3c-35.6,0-71.3,0-106.9,0c0-46.5-69.7-46.5-69.7,0c-35.6,0-71.3,0-106.9,0
				C494.7,209.3,778.3,209.3,778.3,398.3z"/>
			<rect x="494.7" y="398.3" class="st1" width="106.9" height="310.1"/>
			
				<rect x="585.3" y="400.4" transform="matrix(-1.836970e-16 1 -1 -1.836970e-16 1169.2223 -108.3355)" class="st1" width="106.9" height="260.1"/>
		</g>
		<g>
			<rect x="2990.3" y="327.4" class="st1" width="106.9" height="381"/>
			
				<rect x="2990.3" y="187.7" transform="matrix(-1.836970e-16 1 -1 -1.836970e-16 3353.7478 -2733.7205)" class="st1" width="106.9" height="244.6"/>
		</g>
		<g>
			<rect x="2417.1" y="398.3" class="st1" width="106.9" height="310.1"/>
			<path class="st1" d="M2524,398.3c-35.6,0-71.3,0-106.9,0c0-46.5-69.7-46.5-69.7,0c-35.6,0-71.3,0-106.9,0
				C2240.5,209.3,2524,209.3,2524,398.3z"/>
			<rect x="2240.5" y="398.3" class="st1" width="106.9" height="310.1"/>
			
				<rect x="2331.1" y="400.4" transform="matrix(-1.836970e-16 1 -1 -1.836970e-16 2914.9836 -1854.0967)" class="st1" width="106.9" height="260.1"/>
		</g>
		<g>
			<rect x="1008.1" y="393.7" class="st1" width="106.9" height="314.7"/>
			<rect x="831.5" y="393.7" class="st1" width="106.9" height="314.7"/>
			<path class="st1" d="M1061.6,398.3c-35.6,0-17.8,0-53.5,0c0-46.5-69.7-46.5-69.7,0c-35.6,0-71.3,0-106.9,0
				C831.5,209.3,1061.6,209.3,1061.6,398.3z"/>
			<path class="st1" d="M1291.7,398.3c-35.6,0-71.3,0-106.9,0c0-46.5-69.7-46.5-69.7,0c-35.6,0-17.8,0-53.5,0
				C1061.6,209.3,1291.7,209.3,1291.7,398.3z"/>
			<rect x="1184.8" y="393.7" class="st1" width="106.9" height="314.7"/>
		</g>
		<g>
			<rect x="1903.7" y="393.7" class="st1" width="106.9" height="314.7"/>
			<rect x="1727" y="393.7" class="st1" width="106.9" height="314.7"/>
			<path class="st1" d="M1957.2,398.3c-35.6,0-17.8,0-53.5,0c0-46.5-69.7-46.5-69.7,0c-35.6,0-71.3,0-106.9,0
				C1727,209.3,1957.2,209.3,1957.2,398.3z"/>
			<path class="st1" d="M2187.3,398.3c-35.6,0-71.3,0-106.9,0c0-46.5-69.7-46.5-69.7,0c-35.6,0-17.8,0-53.5,0
				C1957.2,209.3,2187.3,209.3,2187.3,398.3z"/>
			<rect x="2080.3" y="393.7" class="st1" width="106.9" height="314.7"/>
		</g>
		<g>
			
				<rect x="1419.3" y="386.1" transform="matrix(-1.836970e-16 1 -1 -1.836970e-16 1955.1705 -990.2382)" class="st1" width="106.9" height="192.8"/>
			<g>
				
					<rect x="1419.3" y="213.6" transform="matrix(-1.836970e-16 1 -1 -1.836970e-16 1782.6906 -1162.7181)" class="st1" width="106.9" height="192.8"/>
				<path class="st1" d="M1451.8,601.5v-345h-106.9v365.7c0,47.6,38.6,86.2,86.2,86.2h138V601.5H1451.8z"/>
			</g>
		</g>
		<g>
			<g>
				
					<rect x="3281" y="386.1" transform="matrix(-1.836970e-16 1 -1 -1.836970e-16 3816.939 -2852.0068)" class="st1" width="106.9" height="192.8"/>
				<g>
					
						<rect x="3281" y="213.6" transform="matrix(-1.836970e-16 1 -1 -1.836970e-16 3644.4592 -3024.4868)" class="st1" width="106.9" height="192.8"/>
					<path class="st1" d="M3313.6,601.5v-345h-106.9v365.7c0,47.6,38.6,86.2,86.2,86.2h138V601.5H3313.6z"/>
				</g>
			</g>
			<g>
				<rect x="3484.1" y="413" class="st1" width="106.9" height="295.4"/>
				<polygon class="st1" points="3697.6,511.6 3675,534.3 3591,468.5 3622.1,587.2 3749.9,715 3825.5,639.4 				"/>
				<path class="st1" d="M3662,235c-98.3,0-178,79.7-178,178c0,73,44,135.7,106.9,163.1V468.5l30.8,117.7c13,3,26.4,4.7,40.2,4.7
					c98.3,0,178-79.7,178-178C3840,314.7,3760.3,235,3662,235z M3662,484.1c-39.2,0-71.1-31.8-71.1-71.1c0-39.2,31.8-71.1,71.1-71.1
					s71.1,31.8,71.1,71.1C3733.1,452.3,3701.3,484.1,3662,484.1z"/>
			</g>
		</g>
		<path class="st1" d="M2880.8,256.6h-62.9h0c-62.5,0-115.9,45.2-126.1,106.9l-32.9,198.3c-3.8,22.9-23.6,39.8-46.9,39.8h-47.4
			v106.9h70c62.5,0,115.9-45.2,126.1-106.9l32.9-198.3c3.8-22.9,23.6-39.8,46.9-39.8h40.3V256.6z"/>
		<path class="st1" d="M380.1,423.5l-40.8,40.8c0.2,2.6,0.4,5.1,0.4,7.7c0,64.3-52.1,116.4-116.4,116.4
			c-64.3,0-116.4-52.1-116.4-116.4S159,355.7,223.3,355.7c37.7,0,71,18,92.3,45.7l76-76c-40.9-46.9-101.1-76.6-168.3-76.6
			C100,248.8,0,348.7,0,472.1s100,223.3,223.3,223.3c123.3,0,223.3-100,223.3-223.3c0-16.7-1.8-32.9-5.3-48.5H380.1z"/>
	</g>
	<g>
		<path class="st1" d="M1297.8,3.5h54.1v57.1h49.4V3.5h54.1v161.7h-54.1v-58h-49.4v58h-54.1V3.5z"/>
		<path class="st1" d="M1537.6,2.3h53.6l68.2,162.9h-58.7l-8.6-21.7h-56.6l-8.3,21.7h-57.8L1537.6,2.3z M1578.7,105.1l-14.8-39.3
			l-14.8,39.3H1578.7z"/>
		<path class="st1" d="M1673.4,3.5h79c28.6,0,46.9,7.2,58.2,18.5c9.7,9.7,14.8,21.7,14.8,38.3v0.5c0,23.6-12.2,40-31.9,49.4l37.7,55
			h-61.7L1739,119h-0.5h-11.1v46.2h-54.1V3.5z M1750.8,80.4c12.9,0,20.8-5.8,20.8-15.7v-0.5c0-10.4-8.1-15.5-20.6-15.5h-23.6v31.6
			H1750.8z"/>
		<path class="st1" d="M1887.3,49.2h-47.6V3.5H1989v45.7h-47.6v116h-54.1V49.2z"/>
		<path class="st1" d="M2007.2,92.6V3.5h55V92c0,20.1,10.4,28.6,24.9,28.6s24.9-7.9,24.9-27.5V3.5h55v88c0,55.2-32.1,76.9-80.4,76.9
			C2038.4,168.4,2007.2,146.2,2007.2,92.6z"/>
		<path class="st1" d="M2191.5,3.5h50.6l57.5,71.4V3.5h53.6v161.7h-48.1l-60.1-74.6v74.6h-53.6V3.5z"/>
		<path class="st1" d="M2375.4,84.8v-0.5c0-48.3,38.1-84.3,89.2-84.3c27.7,0,50.1,9.2,67.7,24.5L2502,61
			c-10.6-9-22.4-14.1-35.8-14.1c-21,0-36.3,16.2-36.3,38.1v0.5c0,22.9,15.9,38.6,38.6,38.6c9.2,0,14.3-1.4,18.5-3.7v-16.2h-27.7
			V69.5h78.3v74.8c-17.6,14.3-42,24.3-71.4,24.3C2415.8,168.7,2375.4,134.9,2375.4,84.8z"/>
	</g>
</g>
</svg>
